neru-light-classic/32x32/apps/busy.svg

<?xml version="1.0" encoding="UTF-8" standalone="no"?>
<svg
   xmlns:dc="http://purl.org/dc/elements/1.1/"
   xmlns:cc="http://creativecommons.org/ns#"
   xmlns:rdf="http://www.w3.org/1999/02/22-rdf-syntax-ns#"
   xmlns:svg="http://www.w3.org/2000/svg"
   xmlns="http://www.w3.org/2000/svg"
   xmlns:sodipodi="http://sodipodi.sourceforge.net/DTD/sodipodi-0.dtd"
   xmlns:inkscape="http://www.inkscape.org/namespaces/inkscape"
   height="32"
   width="32"
   version="1"
   id="svg20"
   sodipodi:docname="busy.svg"
   inkscape:version="0.92.1 r">
  <metadata
     id="metadata26">
    <rdf:RDF>
      <cc:Work
         rdf:about="">
        <dc:format>image/svg+xml</dc:format>
        <dc:type
           rdf:resource="http://purl.org/dc/dcmitype/StillImage" />
        <dc:title></dc:title>
      </cc:Work>
    </rdf:RDF>
  </metadata>
  <defs
     id="defs24" />
  <sodipodi:namedview
     pagecolor="#ffffff"
     bordercolor="#666666"
     borderopacity="1"
     objecttolerance="10"
     gridtolerance="10"
     guidetolerance="10"
     inkscape:pageopacity="0"
     inkscape:pageshadow="2"
     inkscape:window-width="1680"
     inkscape:window-height="955"
     id="namedview22"
     showgrid="false"
     inkscape:zoom="1.84375"
     inkscape:cx="-89.215855"
     inkscape:cy="5.306107"
     inkscape:window-x="0"
     inkscape:window-y="0"
     inkscape:window-maximized="1"
     inkscape:current-layer="svg20" />
  <rect
     style="opacity:1;fill:#5f7c8a;fill-opacity:1;fill-rule:evenodd;stroke:none;stroke-width:1.03534329;stroke-linecap:round;stroke-linejoin:bevel;stroke-miterlimit:4;stroke-dasharray:none;stroke-dashoffset:0;stroke-opacity:1"
     id="rect4497"
     width="28.203388"
     height="28.203388"
     x="1.8983059"
     y="1.8983059"
     ry="5.575182" />
  <path
     style="fill:#ffffff;stroke-width:0.68155366;enable-background:new;fill-opacity:1"
     d="M 11.529297 6.7226562 C 11.463743 6.7062225 11.39331 6.7094694 11.332031 6.7382812 L 9.1933594 7.7695312 C 9.0715181 7.8296167 9.0019246 7.9820519 9.0371094 8.1132812 L 9.3632812 9.3789062 C 9.2045515 9.5502896 9.0555247 9.7289239 8.9199219 9.9277344 C 8.7843143 10.126552 8.6719289 10.330662 8.5703125 10.541016 L 7.2734375 10.699219 C 7.1384297 10.714369 7.0212359 10.833384 7.0097656 10.96875 L 6.8320312 13.335938 C 6.8231212 13.471054 6.9182003 13.606911 7.0488281 13.642578 L 8.3027344 13.992188 C 8.4416362 14.445785 8.6537568 14.883104 8.9257812 15.28125 L 8.4179688 16.470703 C 8.3640618 16.594761 8.4088419 16.7543 8.5195312 16.832031 L 10.478516 18.167969 C 10.591203 18.242779 10.755748 18.226339 10.851562 18.130859 L 11.773438 17.222656 C 12.243391 17.330613 12.728164 17.370236 13.201172 17.333984 L 13.984375 18.371094 C 14.065255 18.479691 14.225102 18.520508 14.347656 18.462891 L 16.486328 17.431641 C 16.608166 17.371551 16.67581 17.221073 16.640625 17.089844 L 16.316406 15.824219 C 16.475135 15.652836 16.622185 15.472283 16.757812 15.273438 C 16.893421 15.07462 17.00772 14.870484 17.109375 14.660156 L 18.40625 14.501953 C 18.541258 14.486803 18.656495 14.367785 18.667969 14.232422 L 18.847656 11.865234 C 18.856556 11.730118 18.759535 11.596212 18.628906 11.560547 L 17.376953 11.210938 C 17.237971 10.757015 17.025825 10.319949 16.753906 9.921875 L 17.261719 8.7324219 C 17.315629 8.6083644 17.270892 8.4488214 17.160156 8.3710938 L 15.201172 7.0351562 C 15.193672 7.0297563 15.185484 7.0245562 15.177734 7.0195312 C 15.066173 6.9599982 14.917173 6.9824866 14.828125 7.0722656 L 13.90625 7.9785156 C 13.436296 7.8705591 12.951527 7.8328854 12.478516 7.8691406 L 11.695312 6.8300781 C 11.654871 6.7757786 11.594851 6.73909 11.529297 6.7226562 z M 12.853516 10.060547 C 13.342974 10.062719 13.836691 10.205394 14.271484 10.501953 C 15.430932 11.292779 15.730278 12.873755 14.939453 14.033203 C 14.148627 15.192651 12.567651 15.491997 11.408203 14.701172 C 10.248755 13.910346 9.9494093 12.32937 10.740234 11.169922 C 11.234501 10.445267 12.037752 10.056927 12.853516 10.060547 z "
     id="path2-3" />
  <path
     style="fill:#ffffff;stroke-width:0.68155366;enable-background:new;fill-opacity:1"
     d="M 21.125 14.035156 C 21.03057 14.029556 20.934804 14.090841 20.902344 14.179688 L 20.560547 15.085938 C 20.207417 15.159437 19.864825 15.284564 19.554688 15.457031 L 18.699219 14.996094 C 18.610309 14.947564 18.487158 14.969415 18.421875 15.046875 L 17.291016 16.416016 C 17.226986 16.494926 17.228039 16.619076 17.292969 16.697266 L 17.910156 17.455078 C 17.855846 17.62116 17.811271 17.791255 17.78125 17.96875 C 17.75122 18.146251 17.737695 18.319422 17.734375 18.494141 L 16.902344 19.007812 C 16.815324 19.060302 16.774086 19.177855 16.808594 19.273438 L 17.425781 20.9375 C 17.461961 21.03211 17.569998 21.092756 17.669922 21.076172 L 18.630859 20.923828 C 18.86702 21.188691 19.147727 21.417943 19.457031 21.603516 L 19.482422 22.572266 C 19.484522 22.673426 19.566488 22.766923 19.666016 22.785156 L 21.414062 23.082031 C 21.514022 23.097661 21.620971 23.034283 21.65625 22.939453 L 22 22.035156 C 22.35313 21.961656 22.69377 21.836527 23.003906 21.664062 L 23.861328 22.125 C 23.950238 22.17353 24.071437 22.149726 24.136719 22.072266 L 25.267578 20.703125 C 25.331598 20.624215 25.330555 20.500065 25.265625 20.421875 L 24.648438 19.664062 C 24.702748 19.497981 24.747316 19.32987 24.777344 19.152344 C 24.807374 18.974842 24.820869 18.799713 24.824219 18.625 L 25.65625 18.113281 C 25.74327 18.060791 25.784506 17.943238 25.75 17.847656 L 25.132812 16.181641 C 25.096643 16.087031 24.988593 16.026384 24.888672 16.042969 L 23.927734 16.197266 C 23.691417 15.932206 23.410772 15.701183 23.101562 15.515625 L 23.076172 14.548828 C 23.074072 14.447669 22.994056 14.352214 22.894531 14.333984 L 21.144531 14.039062 C 21.137731 14.037762 21.13184 14.036156 21.125 14.035156 z M 21.212891 16.660156 C 21.339125 16.655829 21.466311 16.663659 21.595703 16.685547 C 22.63084 16.860652 23.329402 17.841816 23.154297 18.876953 C 22.979191 19.91209 21.998028 20.608699 20.962891 20.433594 C 19.927754 20.258489 19.231145 19.277325 19.40625 18.242188 C 19.559468 17.336443 20.329247 16.69045 21.212891 16.660156 z "
     id="path2-3-6" />
  <path
     style="fill:#ffffff;stroke-width:0.68155366;enable-background:new;fill-opacity:1"
     d="M 12.421875 18.783203 C 12.356675 18.779303 12.289994 18.821458 12.267578 18.882812 L 12.03125 19.507812 C 11.787398 19.558573 11.552055 19.644575 11.337891 19.763672 L 10.746094 19.445312 C 10.684694 19.411803 10.599768 19.428932 10.554688 19.482422 L 9.7734375 20.427734 C 9.7292235 20.482224 9.7305586 20.5671 9.7753906 20.621094 L 10.201172 21.144531 C 10.163662 21.259218 10.134021 21.375478 10.113281 21.498047 C 10.092541 21.620619 10.082368 21.740677 10.080078 21.861328 L 9.5058594 22.216797 C 9.4457674 22.253047 9.4175763 22.334387 9.4414062 22.400391 L 9.8671875 23.548828 C 9.8921675 23.614158 9.9661544 23.657939 10.035156 23.646484 L 10.699219 23.539062 C 10.862299 23.721964 11.055942 23.881619 11.269531 24.009766 L 11.287109 24.677734 C 11.288609 24.747594 11.345337 24.813582 11.414062 24.826172 L 12.621094 25.029297 C 12.690124 25.040087 12.764701 24.997121 12.789062 24.931641 L 13.025391 24.306641 C 13.269243 24.255881 13.504587 24.169876 13.71875 24.050781 L 14.310547 24.369141 C 14.371937 24.402651 14.456872 24.387474 14.501953 24.333984 L 15.283203 23.388672 C 15.327413 23.334182 15.32608 23.247353 15.28125 23.193359 L 14.855469 22.669922 C 14.892979 22.555234 14.922619 22.438996 14.943359 22.316406 C 14.964089 22.193834 14.974252 22.073772 14.976562 21.953125 L 15.550781 21.597656 C 15.610871 21.561416 15.639064 21.482019 15.615234 21.416016 L 15.189453 20.265625 C 15.164473 20.200295 15.090479 20.158465 15.021484 20.169922 L 14.357422 20.275391 C 14.194234 20.092355 14.000633 19.932823 13.787109 19.804688 L 13.769531 19.136719 C 13.768031 19.066859 13.711302 19.002822 13.642578 18.990234 L 12.435547 18.785156 C 12.430847 18.784247 12.426625 18.783903 12.421875 18.783203 z M 12.482422 20.595703 C 12.569593 20.592715 12.658696 20.598167 12.748047 20.613281 C 13.462856 20.734199 13.943184 21.412144 13.822266 22.126953 C 13.701348 22.841762 13.023404 23.32209 12.308594 23.201172 C 11.593785 23.080254 11.113457 22.402309 11.234375 21.6875 C 11.340179 21.062042 11.872225 20.616622 12.482422 20.595703 z "
     id="path2-3-6-3" />
</svg>

<svg xmlns="http://www.w3.org/2000/svg" height="32" width="32" version="1"><rect width="28.203" height="28.203" x="1.898" y="1.898" ry="5.575" fill="#5f7c8a" fill-rule="evenodd"/><path d="M11.53 6.723a.296.296 0 0 0-.198.015L9.193 7.77a.308.308 0 0 0-.156.343l.326 1.266c-.158.171-.307.35-.443.549a4.72 4.72 0 0 0-.35.613l-1.297.158a.307.307 0 0 0-.263.27l-.178 2.367a.306.306 0 0 0 .217.307l1.254.35c.139.453.35.89.623 1.288l-.508 1.19a.307.307 0 0 0 .102.361l1.959 1.336a.306.306 0 0 0 .373-.037l.921-.908c.47.108.955.147 1.428.111l.783 1.037c.081.109.241.15.364.092l2.138-1.031c.122-.06.19-.21.155-.342l-.325-1.266c.16-.171.306-.352.442-.55.135-.2.25-.404.351-.614l1.297-.158a.305.305 0 0 0 .262-.27l.18-2.367a.306.306 0 0 0-.22-.304l-1.251-.35a4.772 4.772 0 0 0-.623-1.29l.508-1.189a.307.307 0 0 0-.102-.36l-1.959-1.337-.023-.015a.304.304 0 0 0-.35.052l-.922.907a4.772 4.772 0 0 0-1.427-.11l-.784-1.039a.295.295 0 0 0-.166-.107zm1.324 3.338a2.541 2.541 0 1 1-.027 5.082 2.541 2.541 0 0 1 .027-5.082zM21.125 14.035a.23.23 0 0 0-.223.145l-.341.906a3.577 3.577 0 0 0-1.006.371l-.856-.46a.23.23 0 0 0-.277.05l-1.131 1.369a.229.229 0 0 0 .002.281l.617.758a3.555 3.555 0 0 0-.129.514c-.03.177-.043.35-.047.525l-.832.514a.23.23 0 0 0-.093.265l.617 1.665a.23.23 0 0 0 .244.138l.96-.152c.237.265.518.494.827.68l.025.968a.23.23 0 0 0 .184.213l1.748.297a.23.23 0 0 0 .242-.143l.344-.904a3.565 3.565 0 0 0 1.004-.37l.857.46c.09.049.21.025.276-.053l1.13-1.369a.229.229 0 0 0-.001-.281l-.618-.758c.055-.166.1-.334.13-.512.03-.177.043-.352.046-.527l.832-.512a.23.23 0 0 0 .094-.265l-.617-1.666a.23.23 0 0 0-.244-.139l-.961.154a3.57 3.57 0 0 0-.826-.681l-.026-.967a.23.23 0 0 0-.181-.215l-1.75-.295-.02-.004zm.088 2.625a1.902 1.902 0 0 1 1.941 2.217 1.9 1.9 0 1 1-1.941-2.217zM12.422 18.783a.159.159 0 0 0-.154.1l-.237.625c-.244.05-.479.137-.693.256l-.592-.319a.16.16 0 0 0-.191.037l-.782.946a.157.157 0 0 0 .002.193l.426.524a2.437 2.437 0 0 0-.12.716l-.575.356a.158.158 0 0 0-.065.183l.426 1.149c.025.065.1.109.168.097l.664-.107c.163.183.357.343.57.47l.018.669a.16.16 0 0 0 .127.148l1.207.203a.159.159 0 0 0 .168-.097l.236-.625c.244-.051.48-.137.694-.256l.592.318a.16.16 0 0 0 .191-.035l.781-.945a.16.16 0 0 0-.002-.196l-.426-.523a2.436 2.436 0 0 0 .122-.717l.574-.355a.156.156 0 0 0 .064-.182l-.426-1.15a.157.157 0 0 0-.168-.096l-.664.105a2.464 2.464 0 0 0-.57-.47l-.017-.668a.158.158 0 0 0-.127-.147l-1.207-.205-.014-.002zm.06 1.813a1.312 1.312 0 1 1 .092 2.623 1.312 1.312 0 0 1-.092-2.623z" fill="#fff"/></svg>
